SVG_Azure_Grouped/Workload/Azure Active Directory Sync Standby.svg

<?xml version="1.0" encoding="UTF-8" standalone="no"?>
<!-- Generated by Microsoft Visio, SVG Export Azure Active Directory Sync Standby.svg Page-1 -->

<svg
   xmlns:dc="http://purl.org/dc/elements/1.1/"
   xmlns:cc="http://creativecommons.org/ns#"
   xmlns:rdf="http://www.w3.org/1999/02/22-rdf-syntax-ns#"
   xmlns:svg="http://www.w3.org/2000/svg"
   xmlns="http://www.w3.org/2000/svg"
   xmlns:xlink="http://www.w3.org/1999/xlink"
   xmlns:sodipodi="http://sodipodi.sourceforge.net/DTD/sodipodi-0.dtd"
   xmlns:inkscape="http://www.inkscape.org/namespaces/inkscape"
   width="0.66922468in"
   height="0.78732538in"
   viewBox="0 0 48.184423 56.687428"
   xml:space="preserve"
   class="st12"
   version="1.1"
   id="svg200"
   sodipodi:docname="Azure Active Directory Sync Standby.svg"
   style="font-size:12px;overflow:visible;color-interpolation-filters:sRGB;fill:none;fill-rule:evenodd;stroke-linecap:square;stroke-miterlimit:3"
   inkscape:version="0.92.5 (2060ec1f9f, 2020-04-08)"><metadata
   id="metadata204"><rdf:RDF><cc:Work
       rdf:about=""><dc:format>image/svg+xml</dc:format><dc:type
         rdf:resource="http://purl.org/dc/dcmitype/StillImage" /></cc:Work></rdf:RDF></metadata><sodipodi:namedview
   pagecolor="#ffffff"
   bordercolor="#666666"
   borderopacity="1"
   objecttolerance="10"
   gridtolerance="10"
   guidetolerance="10"
   inkscape:pageopacity="0"
   inkscape:pageshadow="2"
   inkscape:window-width="640"
   inkscape:window-height="480"
   id="namedview202"
   showgrid="false"
   inkscape:zoom="1.4152754"
   inkscape:cx="30.819876"
   inkscape:cy="38.016204"
   inkscape:window-x="0"
   inkscape:window-y="0"
   inkscape:window-maximized="0"
   inkscape:current-layer="svg200" />
	<style
   type="text/css"
   id="style2">
	<![CDATA[
		.st1 {fill:url(#grad0-11);stroke:none;stroke-linecap:butt;stroke-width:35.9595}
		.st2 {fill:#003067;stroke:none;stroke-linecap:butt;stroke-width:35.9595}
		.st3 {fill:#50e6ff;stroke:none;stroke-linecap:butt;stroke-width:35.9595}
		.st4 {fill:url(#grad0-31);stroke:none;stroke-linecap:butt;stroke-width:33.9999}
		.st5 {fill:#ffffff;stroke:none;stroke-linecap:round;stroke-linejoin:round;stroke-width:0.749997}
		.st6 {fill:#50e6ff;stroke:none;stroke-linecap:butt;stroke-width:33.9999}
		.st7 {fill:#ffffff;stroke:none;stroke-linecap:butt;stroke-width:33.9999}
		.st8 {fill:url(#grad0-55);stroke:none;stroke-linecap:butt;stroke-width:33.9999}
		.st9 {fill:#53b1e0;stroke:none;stroke-linecap:butt;stroke-width:33.9999}
		.st10 {fill:#9cebff;stroke:none;stroke-linecap:butt;stroke-width:33.9999}
		.st11 {fill:url(#grad0-66);stroke:none;stroke-linecap:butt;stroke-width:33.9999}
		.st12 {fill:none;fill-rule:evenodd;font-size:12px;overflow:visible;stroke-linecap:square;stroke-miterlimit:3}
	]]>
	</style>

	<defs
   id="Patterns_And_Gradients">
		<linearGradient
   id="grad0-11"
   x1="-0.00041524658"
   y1="56.258273"
   x2="41.0402"
   y2="56.258273"
   gradientTransform="scale(0.77801766,1.2853179)"
   gradientUnits="userSpaceOnUse">
			<stop
   offset="0"
   stop-color="#949494"
   stop-opacity="1"
   id="stop4" />
			<stop
   offset="0.53"
   stop-color="#a2a2a2"
   stop-opacity="1"
   id="stop6" />
			<stop
   offset="1"
   stop-color="#b3b3b3"
   stop-opacity="1"
   id="stop8" />
		</linearGradient>
		<linearGradient
   id="grad0-31"
   x1="0"
   y1="0"
   x2="1"
   y2="0"
   gradientTransform="rotate(-90,0.5,0.5)">
			<stop
   offset="0"
   stop-color="#0879e2"
   stop-opacity="1"
   id="stop11" />
			<stop
   offset="0.325"
   stop-color="#0a7de4"
   stop-opacity="1"
   id="stop13" />
			<stop
   offset="0.62"
   stop-color="#1088eb"
   stop-opacity="1"
   id="stop15" />
			<stop
   offset="0.91"
   stop-color="#199af6"
   stop-opacity="1"
   id="stop17" />
			<stop
   offset="1"
   stop-color="#1da2fa"
   stop-opacity="1"
   id="stop19" />
		</linearGradient>
		<linearGradient
   id="grad0-55"
   x1="0"
   y1="81.885426"
   x2="13.526773"
   y2="81.885426"
   gradientTransform="scale(0.76293138,1.3107339)"
   gradientUnits="userSpaceOnUse">
			<stop
   offset="0"
   stop-color="#1988d9"
   stop-opacity="1"
   id="stop22" />
			<stop
   offset="0.9"
   stop-color="#54aef0"
   stop-opacity="1"
   id="stop24" />
		</linearGradient>
		<linearGradient
   id="grad0-66"
   x1="-1.5268589e-15"
   y1="134.73405"
   x2="10.761505"
   y2="134.73405"
   gradientTransform="scale(1.163406,0.85954517)"
   gradientUnits="userSpaceOnUse">
			<stop
   offset="0.1"
   stop-color="#54aef0"
   stop-opacity="1"
   id="stop27" />
			<stop
   offset="0.29"
   stop-color="#4fabee"
   stop-opacity="1"
   id="stop29" />
			<stop
   offset="0.51"
   stop-color="#41a2e9"
   stop-opacity="1"
   id="stop31" />
			<stop
   offset="0.74"
   stop-color="#2a93e0"
   stop-opacity="1"
   id="stop33" />
			<stop
   offset="0.88"
   stop-color="#1988d9"
   stop-opacity="1"
   id="stop35" />
		</linearGradient>
	<linearGradient
   inkscape:collect="always"
   xlink:href="#grad0-31"
   id="linearGradient4714"
   gradientTransform="scale(1.0175929,0.98271125)"
   x1="0"
   y1="95.724965"
   x2="31.535204"
   y2="95.724965"
   gradientUnits="userSpaceOnUse" /><linearGradient
   inkscape:collect="always"
   xlink:href="#grad0-31"
   id="linearGradient4716"
   gradientTransform="scale(0.9634164,1.0379728)"
   x1="0"
   y1="101.57299"
   x2="18.911864"
   y2="101.57299"
   gradientUnits="userSpaceOnUse" /></defs>
	<g
   id="g198"
   transform="translate(-35.959477,-34.356902)">
		<title
   id="title39">Page-1</title>
		<g
   id="group16164-1"
   transform="translate(35.9598,-34.0157)">
			<title
   id="title41">Azure Active Directory Sync Standby.16164</title>
			<g
   id="group16165-2">
				<title
   id="title43">Page-1</title>
				<g
   id="group16166-3">
					<title
   id="title45">Sheet.16166</title>
					<g
   id="group16167-4"
   transform="translate(0,-2.33866)">
						<title
   id="title47">Sheet.16167</title>
						<g
   id="group16168-5">
							<title
   id="title49">Icon-databases-136.149</title>
							<g
   id="group16169-6">
								<title
   id="title51">path4-5</title>
								<g
   id="group16170-7">
									<title
   id="title53">Sheet.16170</title>
									<g
   id="shape16171-8">
										<title
   id="title55">Sheet.16171</title>
										<path
   d="m 31.93,123.27 a 1.88556,1.83007 -180 0 1 -1.85,1.79 H 1.85 A 1.85306,1.79851 -180 0 1 0,123.27 V 74.11 a 1.82054,1.76695 -180 0 1 1.85,-1.8 h 28.23 a 1.85306,1.79851 -180 0 1 1.85,1.8 z"
   class="st1"
   id="path57"
   inkscape:connector-curvature="0"
   style="fill:url(#grad0-11);stroke:none;stroke-width:35.95949936;stroke-linecap:butt" />
									</g>
								</g>
							</g>
							<g
   id="group16172-12"
   transform="translate(4.6814,-30.8901)">
								<title
   id="title62">path6-7</title>
								<g
   id="group16173-13">
									<title
   id="title64">Sheet.16173</title>
									<g
   id="shape16174-14">
										<title
   id="title66">Sheet.16174</title>
										<path
   d="m 0,121.7 a 3.47854,3.37615 -180 0 1 3.45,-3.35 h 15.92 a 3.47854,3.37615 -180 0 1 3.58,3.35 3.47854,3.37615 -180 0 1 -3.58,3.36 H 3.45 A 3.47854,3.37615 -180 0 1 0,121.7 Z m 0,-9.98 a 3.47854,3.37615 -180 0 1 3.45,-3.38 h 15.92 a 3.47854,3.37615 -180 0 1 3.58,3.38 3.47854,3.37615 -180 0 1 -3.58,3.35 H 3.45 A 3.47854,3.37615 -180 0 1 0,111.72 Z"
   class="st2"
   id="path68"
   inkscape:connector-curvature="0"
   style="fill:#003067;stroke:none;stroke-width:35.95949936;stroke-linecap:butt" />
									</g>
								</g>
							</g>
							<g
   id="group16175-16"
   transform="translate(5.98178,-41.9627)">
								<title
   id="title73">circle8-5</title>
								<g
   id="group16176-17">
									<title
   id="title75">Sheet.16176</title>
									<g
   id="shape16177-18">
										<title
   id="title77">Sheet.16177</title>
										<ellipse
   cx="2.3406899"
   cy="122.792"
   rx="2.3406899"
   ry="2.2718"
   class="st3"
   id="ellipse79"
   style="fill:#50e6ff;stroke:none;stroke-width:35.95949936;stroke-linecap:butt" />
									</g>
								</g>
							</g>
							<g
   id="group16178-20"
   transform="translate(5.98178,-31.9921)">
								<title
   id="title84">circle10-2</title>
								<g
   id="group16179-21">
									<title
   id="title86">Sheet.16179</title>
									<g
   id="shape16180-22">
										<title
   id="title88">Sheet.16180</title>
										<ellipse
   cx="2.3406899"
   cy="122.792"
   rx="2.3406899"
   ry="2.2718"
   class="st3"
   id="ellipse90"
   style="fill:#50e6ff;stroke:none;stroke-width:35.95949936;stroke-linecap:butt" />
									</g>
								</g>
							</g>
						</g>
					</g>
					<g
   id="group16181-24"
   transform="translate(15.961)">
						<title
   id="title97">Sheet.16181</title>
						<g
   id="group16182-25">
							<title
   id="title99">Sheet.16182</title>
							<g
   id="group16183-26">
								<title
   id="title101">g8</title>
								<g
   id="group16184-27">
									<title
   id="title103">path6</title>
									<g
   id="shape16185-28">
										<title
   id="title105">Sheet.16185</title>
										<path
   d="M 16.04,94.07 C 7.12,94.07 0,101.14 0,109.57 c 0,8.62 7.31,15.49 16.04,15.49 8.73,0 16.05,-7.06 16.05,-15.49 0,-8.43 -7.13,-15.5 -16.05,-15.5 z m 0,2.05 c 7.71,0 13.93,6.01 13.93,13.45 0,7.44 -6.29,13.45 -13.93,13.45 -7.63,0 -13.92,-6.08 -13.92,-13.45 0,-7.38 6.22,-13.45 13.92,-13.45 z"
   class="st4"
   id="path107"
   inkscape:connector-curvature="0"
   style="fill:url(#linearGradient4714);stroke:none;stroke-width:33.99990082;stroke-linecap:butt" />
									</g>
								</g>
							</g>
							<g
   id="group16186-32"
   transform="translate(1.37973,-1.33237)">
								<title
   id="title112">Sheet.16186</title>
								<g
   id="shape16187-33">
									<title
   id="title114">Sheet.16187</title>
									<ellipse
   cx="14.6637"
   cy="110.901"
   rx="14.6637"
   ry="14.1633"
   class="st5"
   id="ellipse116"
   style="fill:#ffffff;stroke:none;stroke-width:0.74999702;stroke-linecap:round;stroke-linejoin:round" />
								</g>
							</g>
						</g>
						<g
   id="group16188-35"
   transform="rotate(45,19.388215,120.79876)">
							<title
   id="title121">g8</title>
							<g
   id="group16189-36">
								<title
   id="title123">path6</title>
								<g
   id="shape16190-37"
   transform="matrix(-1,0,0,1,18.2173,0)">
									<title
   id="title125">Sheet.16190</title>
									<path
   d="m 8.78,106.65 h -0.1 c -2.07,0 -3.99,0.7 -5.54,1.81 L 0,105.43 v 7.98 H 8.26 L 5.14,110.4 a 5.84669,5.64718 0 0 1 3.64,-1.18 c 3.1,0 5.67,2.1 6.21,4.85 h 2.73 a 9.02335,8.71544 -180 0 0 -8.94,-7.42 z m 9.34,10.41 H 9.96 L 10,117.09 H 9.96 l 3.02,2.91 c -1.02,0.7 -2.25,1.06 -3.64,1.06 -2.79,0 -5.17,-1.82 -5.99,-4.28 H 0.5 a 9.03814,8.72973 -180 0 0 8.84,6.86 h 0.1 c 2.04,0 3.93,-0.68 5.47,-1.77 l 3.31,3.19 v -8 z"
   class="st4"
   id="path127"
   inkscape:connector-curvature="0"
   style="fill:url(#linearGradient4716);stroke:none;stroke-width:33.99990082;stroke-linecap:butt" />
								</g>
							</g>
						</g>
					</g>
					<g
   id="group16191-40"
   transform="translate(23.3341,-35.0936)">
						<title
   id="title133">Azure Active Directory</title>
						<g
   id="group16192-41">
							<title
   id="title135">Sheet.16192</title>
							<g
   id="group16193-42">
								<title
   id="title137">Sheet.16193</title>
								<g
   id="shape16194-43">
									<title
   id="title139">Sheet.16194</title>
									<path
   d="m 1.4,115.83 10.93,6.78 11.13,-6.8 1.39,1.55 -12.52,7.7 L 0,117.36 Z"
   class="st6"
   id="path141"
   inkscape:connector-curvature="0"
   style="fill:#50e6ff;stroke:none;stroke-width:33.99990082;stroke-linecap:butt" />
								</g>
							</g>
							<g
   id="group16195-45"
   transform="translate(2.22272,-3.86412)">
								<title
   id="title145">Sheet.16195</title>
								<g
   id="shape16196-46">
									<title
   id="title147">Sheet.16196</title>
									<path
   d="m 0,118.83 10.11,-11.5 10.31,11.51 -10.31,6.22 z"
   class="st7"
   id="path149"
   inkscape:connector-curvature="0"
   style="fill:#ffffff;stroke:none;stroke-width:33.99990082;stroke-linecap:butt" />
								</g>
							</g>
							<g
   id="group16197-48"
   transform="translate(2.22272,-3.86412)">
								<title
   id="title153">Sheet.16197</title>
								<g
   id="shape16198-49">
									<title
   id="title155">Sheet.16198</title>
									<path
   d="m 10.11,107.33 v 17.73 L 0,118.83 Z"
   class="st6"
   id="path157"
   inkscape:connector-curvature="0"
   style="fill:#50e6ff;stroke:none;stroke-width:33.99990082;stroke-linecap:butt" />
								</g>
							</g>
							<g
   id="group16199-51"
   transform="translate(12.3285,-3.86412)">
								<title
   id="title161">Sheet.16199</title>
								<g
   id="shape16200-52">
									<title
   id="title163">Sheet.16200</title>
									<path
   d="m 0,107.33 v 17.73 l 10.32,-6.22 z"
   class="st8"
   id="path165"
   inkscape:connector-curvature="0"
   style="fill:url(#grad0-55);stroke:none;stroke-width:33.99990082;stroke-linecap:butt" />
								</g>
							</g>
							<g
   id="group16201-56"
   transform="translate(12.3285,-3.86412)">
								<title
   id="title169">Sheet.16201</title>
								<g
   id="shape16202-57">
									<title
   id="title171">Sheet.16202</title>
									<path
   d="M 0,116.49 10.32,118.84 0,125.06 Z"
   class="st9"
   id="path173"
   inkscape:connector-curvature="0"
   style="fill:#53b1e0;stroke:none;stroke-width:33.99990082;stroke-linecap:butt" />
								</g>
							</g>
							<g
   id="group16203-59"
   transform="translate(2.22272,-3.86412)">
								<title
   id="title177">Sheet.16203</title>
								<g
   id="shape16204-60">
									<title
   id="title179">Sheet.16204</title>
									<path
   d="M 10.11,125.06 0,118.83 10.11,116.49 Z"
   class="st10"
   id="path181"
   inkscape:connector-curvature="0"
   style="fill:#9cebff;stroke:none;stroke-width:33.99990082;stroke-linecap:butt" />
								</g>
							</g>
							<g
   id="group16205-62"
   transform="translate(12.3285)">
								<title
   id="title185">Sheet.16205</title>
								<g
   id="shape16206-63">
									<title
   id="title187">Sheet.16206</title>
									<path
   d="m 0,125.06 12.52,-7.7 -1.39,-1.55 -11.13,6.8 z"
   class="st11"
   id="path189"
   inkscape:connector-curvature="0"
   style="fill:url(#grad0-66);stroke:none;stroke-width:33.99990082;stroke-linecap:butt" />
								</g>
							</g>
						</g>
					</g>
				</g>
			</g>
		</g>
	</g>
</svg>

<?xml version="1.0" encoding="UTF-8" standalone="no"?>
<!DOCTYPE svg PUBLIC "-//W3C//DTD SVG 1.1//EN" "http://www.w3.org/Graphics/SVG/1.1/DTD/svg11.dtd">
<!-- Generated by Microsoft Visio, SVG Export Azure Active Directory Sync Standby.svg Page-1 -->
<svg xmlns="http://www.w3.org/2000/svg" xmlns:xlink="http://www.w3.org/1999/xlink" xmlns:ev="http://www.w3.org/2001/xml-events"
		width="1.64095in" height="1.737in" viewBox="0 0 118.149 125.064" xml:space="preserve" color-interpolation-filters="sRGB"
		class="st12">
	<style type="text/css">
	<![CDATA[
		.st1 {fill:url(#grad0-11);stroke:none;stroke-linecap:butt;stroke-width:35.9595}
		.st2 {fill:#003067;stroke:none;stroke-linecap:butt;stroke-width:35.9595}
		.st3 {fill:#50e6ff;stroke:none;stroke-linecap:butt;stroke-width:35.9595}
		.st4 {fill:url(#grad0-31);stroke:none;stroke-linecap:butt;stroke-width:33.9999}
		.st5 {fill:#ffffff;stroke:none;stroke-linecap:round;stroke-linejoin:round;stroke-width:0.749997}
		.st6 {fill:#50e6ff;stroke:none;stroke-linecap:butt;stroke-width:33.9999}
		.st7 {fill:#ffffff;stroke:none;stroke-linecap:butt;stroke-width:33.9999}
		.st8 {fill:url(#grad0-55);stroke:none;stroke-linecap:butt;stroke-width:33.9999}
		.st9 {fill:#53b1e0;stroke:none;stroke-linecap:butt;stroke-width:33.9999}
		.st10 {fill:#9cebff;stroke:none;stroke-linecap:butt;stroke-width:33.9999}
		.st11 {fill:url(#grad0-66);stroke:none;stroke-linecap:butt;stroke-width:33.9999}
		.st12 {fill:none;fill-rule:evenodd;font-size:12px;overflow:visible;stroke-linecap:square;stroke-miterlimit:3}
	]]>
	</style>

	<defs id="Patterns_And_Gradients">
		<linearGradient id="grad0-11" x1="0" y1="0" x2="1" y2="0" gradientTransform="rotate(-90 0.5 0.5)">
			<stop offset="0" stop-color="#949494" stop-opacity="1"/>
			<stop offset="0.53" stop-color="#a2a2a2" stop-opacity="1"/>
			<stop offset="1" stop-color="#b3b3b3" stop-opacity="1"/>
		</linearGradient>
		<linearGradient id="grad0-31" x1="0" y1="0" x2="1" y2="0" gradientTransform="rotate(-90 0.5 0.5)">
			<stop offset="0" stop-color="#0879e2" stop-opacity="1"/>
			<stop offset="0.325" stop-color="#0a7de4" stop-opacity="1"/>
			<stop offset="0.62" stop-color="#1088eb" stop-opacity="1"/>
			<stop offset="0.91" stop-color="#199af6" stop-opacity="1"/>
			<stop offset="1" stop-color="#1da2fa" stop-opacity="1"/>
		</linearGradient>
		<linearGradient id="grad0-55" x1="0" y1="0" x2="1" y2="0" gradientTransform="rotate(-133.54829310906 0.5 0.5)">
			<stop offset="0" stop-color="#1988d9" stop-opacity="1"/>
			<stop offset="0.9" stop-color="#54aef0" stop-opacity="1"/>
		</linearGradient>
		<linearGradient id="grad0-66" x1="0" y1="0" x2="1" y2="0" gradientTransform="rotate(65.834982258294 0.5 0.5)">
			<stop offset="0.1" stop-color="#54aef0" stop-opacity="1"/>
			<stop offset="0.29" stop-color="#4fabee" stop-opacity="1"/>
			<stop offset="0.51" stop-color="#41a2e9" stop-opacity="1"/>
			<stop offset="0.74" stop-color="#2a93e0" stop-opacity="1"/>
			<stop offset="0.88" stop-color="#1988d9" stop-opacity="1"/>
		</linearGradient>
	</defs>
	<g>
		<title>Page-1</title>
		<g id="group15781-1" transform="translate(35.9598,-34.0157)">
			<title>Azure Active Directory Sync Standby.15781</title>
			<g id="group15782-2">
				<title>Page-1</title>
				<g id="group15783-3">
					<title>Sheet.15783</title>
					<g id="group15784-4" transform="translate(2.43805E-13,-2.33866)">
						<title>Sheet.15784</title>
						<g id="group15785-5">
							<title>Icon-databases-136.149</title>
							<g id="group15786-6">
								<title>path4-5</title>
								<g id="group15787-7">
									<title>Sheet.15787</title>
									<g id="shape15788-8">
										<title>Sheet.15788</title>
										<path d="M31.93 123.27 A1.88556 1.83007 -180 0 1 30.08 125.06 L1.85 125.06 A1.85306 1.79851
													 -180 0 1 -0 123.27 L0 74.11 A1.82054 1.76695 -180 0 1 1.85 72.31 L30.08 72.31
													 A1.85306 1.79851 -180 0 1 31.93 74.11 L31.93 123.27 Z" class="st1"/>
									</g>
								</g>
							</g>
							<g id="group15789-12" transform="translate(4.6814,-30.8901)">
								<title>path6-7</title>
								<g id="group15790-13">
									<title>Sheet.15790</title>
									<g id="shape15791-14">
										<title>Sheet.15791</title>
										<path d="M-0 121.7 A3.47854 3.37615 -180 0 1 3.45 118.35 L19.37 118.35 A3.47854 3.37615 -180
													 0 1 22.95 121.7 A3.47854 3.37615 -180 0 1 19.37 125.06 L3.45 125.06 A3.47854
													 3.37615 -180 0 1 -0 121.7 ZM0 111.72 A3.47854 3.37615 -180 0 1 3.45 108.34 L19.37
													 108.34 A3.47854 3.37615 -180 0 1 22.95 111.72 A3.47854 3.37615 -180 0 1 19.37
													 115.07 L3.45 115.07 A3.47854 3.37615 -180 0 1 -0 111.72 Z" class="st2"/>
									</g>
								</g>
							</g>
							<g id="group15792-16" transform="translate(5.98178,-41.9627)">
								<title>circle8-5</title>
								<g id="group15793-17">
									<title>Sheet.15793</title>
									<g id="shape15794-18">
										<title>Sheet.15794</title>
										<ellipse cx="2.34069" cy="122.792" rx="2.34069" ry="2.2718" class="st3"/>
									</g>
								</g>
							</g>
							<g id="group15795-20" transform="translate(5.98178,-31.9921)">
								<title>circle10-2</title>
								<g id="group15796-21">
									<title>Sheet.15796</title>
									<g id="shape15797-22">
										<title>Sheet.15797</title>
										<ellipse cx="2.34069" cy="122.792" rx="2.34069" ry="2.2718" class="st3"/>
									</g>
								</g>
							</g>
						</g>
					</g>
					<g id="group15798-24" transform="translate(15.961,-2.84217E-13)">
						<title>Sheet.15798</title>
						<g id="group15799-25">
							<title>Sheet.15799</title>
							<g id="group15800-26">
								<title>g8</title>
								<g id="group15801-27">
									<title>path6</title>
									<g id="shape15802-28">
										<title>Sheet.15802</title>
										<path d="M16.04 94.07 C7.12 94.07 0 101.14 0 109.57 C0 118.19 7.31 125.06 16.04 125.06 C24.77
													 125.06 32.09 118 32.09 109.57 C32.09 101.14 24.96 94.07 16.04 94.07 ZM16.04
													 96.12 C23.75 96.12 29.97 102.13 29.97 109.57 C29.97 117.01 23.68 123.02 16.04
													 123.02 C8.41 123.02 2.12 116.94 2.12 109.57 C2.12 102.19 8.34 96.12 16.04 96.12
													 Z" class="st4"/>
									</g>
								</g>
							</g>
							<g id="group15803-32" transform="translate(1.37973,-1.33237)">
								<title>Sheet.15803</title>
								<g id="shape15804-33">
									<title>Sheet.15804</title>
									<ellipse cx="14.6637" cy="110.901" rx="14.6637" ry="14.1633" class="st5"/>
								</g>
							</g>
						</g>
						<g id="group15805-35" transform="translate(91.0963,21.6716) rotate(45)">
							<title>g8</title>
							<g id="group15806-36">
								<title>path6</title>
								<g id="shape15807-37" transform="translate(18.2173,-1.56319E-13) scale(-1,1)">
									<title>Sheet.15807</title>
									<path d="M8.78 106.65 L8.68 106.65 C6.61 106.65 4.69 107.35 3.14 108.46 L0 105.43 L0 113.41 L8.26
												 113.41 L5.14 110.4 A5.84669 5.64718 0 0 1 8.78 109.22 C11.88 109.22 14.45 111.32
												 14.99 114.07 L17.72 114.07 A9.02335 8.71544 -180 0 0 8.78 106.65 ZM18.12 117.06
												 L9.96 117.06 L10 117.09 L9.96 117.09 L12.98 120 C11.96 120.7 10.73 121.06 9.34 121.06
												 C6.55 121.06 4.17 119.24 3.35 116.78 L0.5 116.78 A9.03814 8.72973 -180 0 0 9.34
												 123.64 L9.44 123.64 C11.48 123.64 13.37 122.96 14.91 121.87 L18.22 125.06 L18.22
												 117.06 L18.12 117.06 Z" class="st4"/>
								</g>
							</g>
						</g>
					</g>
					<g id="group15808-40" transform="translate(23.3341,-35.0936)">
						<title>Azure Active Directory</title>
						<g id="group15809-41">
							<title>Sheet.15809</title>
							<g id="group15810-42">
								<title>Sheet.15810</title>
								<g id="shape15811-43">
									<title>Sheet.15811</title>
									<path d="M1.4 115.83 L12.33 122.61 L23.46 115.81 L24.85 117.36 L12.33 125.06 L0 117.36 L1.4 115.83
												 Z" class="st6"/>
								</g>
							</g>
							<g id="group15812-45" transform="translate(2.22272,-3.86412)">
								<title>Sheet.15812</title>
								<g id="shape15813-46">
									<title>Sheet.15813</title>
									<path d="M0 118.83 L10.11 107.33 L20.42 118.84 L10.11 125.06 L0 118.83 Z" class="st7"/>
								</g>
							</g>
							<g id="group15814-48" transform="translate(2.22272,-3.86412)">
								<title>Sheet.15814</title>
								<g id="shape15815-49">
									<title>Sheet.15815</title>
									<path d="M10.11 107.33 L10.11 125.06 L0 118.83 L10.11 107.33 Z" class="st6"/>
								</g>
							</g>
							<g id="group15816-51" transform="translate(12.3285,-3.86412)">
								<title>Sheet.15816</title>
								<g id="shape15817-52">
									<title>Sheet.15817</title>
									<path d="M0 107.33 L0 125.06 L10.32 118.84 L0 107.33 Z" class="st8"/>
								</g>
							</g>
							<g id="group15818-56" transform="translate(12.3285,-3.86412)">
								<title>Sheet.15818</title>
								<g id="shape15819-57">
									<title>Sheet.15819</title>
									<path d="M0 116.49 L10.32 118.84 L0 125.06 L0 116.49 Z" class="st9"/>
								</g>
							</g>
							<g id="group15820-59" transform="translate(2.22272,-3.86412)">
								<title>Sheet.15820</title>
								<g id="shape15821-60">
									<title>Sheet.15821</title>
									<path d="M10.11 125.06 L0 118.83 L10.11 116.49 L10.11 125.06 Z" class="st10"/>
								</g>
							</g>
							<g id="group15822-62" transform="translate(12.3285,-9.9476E-14)">
								<title>Sheet.15822</title>
								<g id="shape15823-63">
									<title>Sheet.15823</title>
									<path d="M0 125.06 L12.52 117.36 L11.13 115.81 L0 122.61 L0 125.06 Z" class="st11"/>
								</g>
							</g>
						</g>
					</g>
				</g>
			</g>
		</g>
	</g>
</svg>
